svgs/solid/nfc-lock.svg

<svg xmlns="http://www.w3.org/2000/svg" viewBox="0 0 576 512"><!--! Font Awesome Pro 6.6.0 by @fontawesome - https://fontawesome.com License - https://fontawesome.com/license (Commercial License) Copyright 2024 Fonticons, Inc. --><path d="M0 96C0 60.7 28.7 32 64 32l320 0c35.3 0 64 28.7 64 64l0 65.1c-24.9 3.6-47.2 15.3-64 32.5l0-49.6c0-26.5-21.5-48-48-48l-80 0c-26.5 0-48 21.5-48 48l0 66.7c-18.6 6.6-32 24.4-32 45.3c0 26.5 21.5 48 48 48s48-21.5 48-48c0-20.9-13.4-38.7-32-45.3l0-66.7c0-8.8 7.2-16 16-16l80 0c8.8 0 16 7.2 16 16l0 128 0 24.6c-19.1 11.1-32 31.7-32 55.4l0 32-208 0c-8.8 0-16-7.2-16-16l0-224c0-8.8 7.2-16 16-16l32 0c8.8 0 16-7.2 16-16s-7.2-16-16-16l-32 0c-26.5 0-48 21.5-48 48l0 224c0 26.5 21.5 48 48 48l208 0 0 64L64 480c-35.3 0-64-28.7-64-64L0 96zM464 240c-17.7 0-32 14.3-32 32l0 48 64 0 0-48c0-17.7-14.3-32-32-32zm-80 32c0-44.2 35.8-80 80-80s80 35.8 80 80l0 48c17.7 0 32 14.3 32 32l0 128c0 17.7-14.3 32-32 32l-160 0c-17.7 0-32-14.3-32-32l0-128c0-17.7 14.3-32 32-32l0-48z"/></svg>

<svg xmlns="http://www.w3.org/2000/svg" viewBox="0 0 576 512"><!--! Font Awesome Pro 6.4.0 by @fontawesome - https://fontawesome.com License - https://fontawesome.com/license (Commercial License) Copyright 2023 Fonticons, Inc. --><path d="M0 96C0 60.7 28.7 32 64 32H384c35.3 0 64 28.7 64 64v65.1c-24.9 3.6-47.2 15.3-64 32.5V144c0-26.5-21.5-48-48-48H256c-26.5 0-48 21.5-48 48v66.7c-18.6 6.6-32 24.4-32 45.3c0 26.5 21.5 48 48 48s48-21.5 48-48c0-20.9-13.4-38.7-32-45.3V144c0-8.8 7.2-16 16-16h80c8.8 0 16 7.2 16 16V272v24.6c-19.1 11.1-32 31.7-32 55.4v32H112c-8.8 0-16-7.2-16-16V144c0-8.8 7.2-16 16-16h32c8.8 0 16-7.2 16-16s-7.2-16-16-16H112c-26.5 0-48 21.5-48 48V368c0 26.5 21.5 48 48 48H320v64H64c-35.3 0-64-28.7-64-64V96zM464 240c-17.7 0-32 14.3-32 32v48h64V272c0-17.7-14.3-32-32-32zm-80 32c0-44.2 35.8-80 80-80s80 35.8 80 80v48c17.7 0 32 14.3 32 32V480c0 17.7-14.3 32-32 32H384c-17.7 0-32-14.3-32-32V352c0-17.7 14.3-32 32-32V272z"/></svg>
